flaticon/essential/user-2.svg

<svg xmlns="http://www.w3.org/2000/svg" width="32" height="32" viewBox="0 0 24 24">
    <path d="M 12 0 C 5.382812 0 0 5.382812 0 12 C 0 15.480469 1.492188 18.617188 3.867188 20.8125 L 3.835938 20.855469 L 4.140625 21.117188 C 5.847656 22.578125 7.917969 23.511719 10.113281 23.851562 C 10.269531 23.875 10.425781 23.894531 10.582031 23.914062 C 10.753906 23.933594 10.921875 23.949219 11.09375 23.960938 C 11.347656 23.980469 11.601562 23.992188 11.859375 23.996094 C 11.886719 23.996094 11.910156 24 11.9375 24 C 11.945312 24 11.953125 24 11.960938 24 C 11.976562 24 11.988281 24 12 24 C 18.617188 24 24 18.617188 24 12 C 24 5.382812 18.617188 0 12 0 Z M 11.960938 23.125 C 11.921875 23.125 11.886719 23.125 11.847656 23.125 C 11.636719 23.121094 11.429688 23.109375 11.222656 23.097656 C 8.910156 22.9375 6.792969 22.066406 5.082031 20.703125 C 5.246094 20.546875 5.429688 20.414062 5.632812 20.3125 L 9.621094 18.601562 C 9.941406 18.441406 10.140625 18.082031 10.332031 17.699219 C 10.449219 17.460938 10.4375 17.179688 10.292969 16.949219 C 10.152344 16.71875 9.90625 16.582031 9.632812 16.582031 L 6.863281 16.585938 C 6.855469 16.582031 5.90625 16.488281 5.195312 16.179688 C 5.058594 16.125 5.003906 16.078125 4.988281 16.074219 C 4.992188 16.058594 5.007812 16.023438 5.046875 15.964844 C 6.035156 14.558594 7.703125 11.757812 7.761719 8.804688 C 7.761719 8.640625 7.890625 4.753906 11.832031 4.722656 C 14.171875 4.738281 15.28125 6.113281 15.796875 7.261719 C 16.054688 7.832031 16.207031 8.515625 16.261719 9.347656 C 16.433594 11.921875 17.613281 14.351562 18.578125 15.9375 C 18.625 16.019531 18.640625 16.117188 18.617188 16.210938 C 18.597656 16.296875 18.546875 16.367188 18.472656 16.410156 C 18.019531 16.683594 17.429688 16.589844 17.425781 16.589844 L 14.519531 16.582031 C 14.207031 16.582031 13.9375 16.777344 13.832031 17.082031 C 13.726562 17.386719 13.820312 17.722656 14.066406 17.917969 C 14.378906 18.164062 14.5 18.238281 14.550781 18.265625 L 17.875 20.277344 C 18.160156 20.433594 18.410156 20.644531 18.613281 20.902344 C 16.683594 22.355469 14.394531 23.121094 11.960938 23.125 Z M 19.308594 20.378906 C 19.03125 20.023438 18.691406 19.726562 18.308594 19.519531 L 14.984375 17.507812 C 14.976562 17.503906 14.953125 17.492188 14.902344 17.453125 L 17.320312 17.453125 C 17.507812 17.480469 18.265625 17.550781 18.917969 17.160156 C 19.191406 16.996094 19.386719 16.734375 19.464844 16.421875 C 19.542969 16.105469 19.492188 15.761719 19.320312 15.484375 C 18.410156 13.980469 17.289062 11.691406 17.132812 9.292969 C 17.070312 8.355469 16.894531 7.574219 16.59375 6.902344 C 15.972656 5.523438 14.644531 3.871094 11.832031 3.847656 C 7.046875 3.886719 6.886719 8.738281 6.886719 8.789062 C 6.832031 11.609375 5.082031 14.398438 4.332031 15.464844 C 4.128906 15.753906 4.066406 16.035156 4.140625 16.300781 C 4.222656 16.589844 4.453125 16.8125 4.847656 16.984375 C 5.6875 17.34375 6.734375 17.449219 6.820312 17.453125 L 9.476562 17.453125 C 9.402344 17.597656 9.304688 17.777344 9.253906 17.808594 L 5.277344 19.515625 L 5.253906 19.527344 C 4.941406 19.679688 4.664062 19.886719 4.417969 20.132812 C 2.238281 18.101562 0.871094 15.207031 0.871094 12 C 0.871094 5.863281 5.863281 0.871094 12 0.871094 C 18.136719 0.871094 23.128906 5.863281 23.128906 12 C 23.128906 15.339844 21.644531 18.335938 19.308594 20.378906 Z M 19.308594 20.378906"/>
</svg>

<svg xmlns="http://www.w3.org/2000/svg" width="32" height="32" viewBox="0 0 24 24">
    <path d="M12 0C5.383 0 0 5.383 0 12c0 3.48 1.492 6.617 3.867 8.813l-.031.042.305.262a11.994 11.994 0 0 0 6.953 2.844c.254.02.508.031.765.035.028 0 .051.004.079.004H12c6.617 0 12-5.383 12-12S18.617 0 12 0zm-.04 23.125h-.112c-.211-.004-.418-.016-.625-.027a11.06 11.06 0 0 1-6.141-2.395c.164-.156.348-.289.55-.39l3.99-1.711c.32-.16.519-.52.71-.903a.767.767 0 0 0-.039-.75.765.765 0 0 0-.66-.367l-2.77.004c-.008-.004-.957-.098-1.668-.406-.136-.055-.191-.102-.207-.106a.43.43 0 0 1 .059-.11c.988-1.405 2.656-4.206 2.715-7.16 0-.163.129-4.05 4.07-4.081 2.34.015 3.45 1.39 3.965 2.539.258.57.41 1.254.465 2.086.172 2.574 1.351 5.004 2.316 6.59a.37.37 0 0 1 .04.273.304.304 0 0 1-.145.2c-.453.273-1.043.179-1.047.179l-2.906-.008a.723.723 0 0 0-.688.5.752.752 0 0 0 .234.836c.313.246.434.32.485.348l3.324 2.011c.285.157.535.368.738.625a10.976 10.976 0 0 1-6.652 2.223zm7.349-2.746a3.23 3.23 0 0 0-1-.86l-3.325-2.011a.494.494 0 0 1-.082-.055h2.418c.188.027.946.098 1.598-.293.273-.164.469-.426.547-.738.078-.317.027-.66-.145-.938-.91-1.504-2.03-3.793-2.187-6.191-.063-.938-.238-1.719-.54-2.39-.62-1.38-1.948-3.032-4.761-3.055-4.785.039-4.945 4.89-4.945 4.941-.055 2.82-1.805 5.61-2.555 6.676-.203.289-.266.57-.191.836.082.289.312.512.707.683.84.36 1.886.465 1.972.47h2.657c-.075.144-.172.323-.223.355l-3.977 1.707-.023.011c-.313.153-.59.36-.836.606A11.092 11.092 0 0 1 .871 12C.871 5.863 5.863.871 12 .871S23.129 5.863 23.129 12c0 3.34-1.484 6.336-3.82 8.379zm0 0"/>
</svg>
